src/shared/assets/icons/ic-star.svg

<svg width="24" height="24" viewBox="1 1 22 22" fill="none" xmlns="http://www.w3.org/2000/svg">
<!-- viewBox를 살짝 크롭해서 동일한 렌더 크기에서 아이콘이 더 크게 보이도록 합니다. -->
<path d="M10.7262 3.04978C11.3131 2.1058 12.687 2.1058 13.2739 3.04978L15.6984 6.94929C15.9049 7.28142 16.233 7.51976 16.6127 7.61352L21.0705 8.71437C22.1497 8.98086 22.5742 10.2875 21.8578 11.1374L18.8984 14.6483C18.6463 14.9473 18.521 15.3329 18.5492 15.723L18.8798 20.3029C18.9598 21.4116 17.8483 22.2191 16.8186 21.8004L12.5651 20.0707C12.2028 19.9234 11.7973 19.9234 11.435 20.0707L7.18145 21.8004C6.15177 22.2191 5.04029 21.4116 5.12031 20.3029L5.4509 15.723C5.47906 15.3329 5.35375 14.9473 5.10169 14.6483L2.14226 11.1374C1.42586 10.2875 1.85041 8.98086 2.92954 8.71437L7.38742 7.61352C7.76711 7.51976 8.09516 7.28142 8.30166 6.94929L10.7262 3.04978Z" fill="currentColor"/>
</svg>

<svg xmlns="http://www.w3.org/2000/svg" fill="none" viewBox="1 1 22 22"><path fill="currentColor" d="M10.726 3.05a1.5 1.5 0 0 1 2.548 0l2.424 3.9a1.5 1.5 0 0 0 .915.664l4.458 1.1a1.5 1.5 0 0 1 .787 2.423l-2.96 3.511a1.5 1.5 0 0 0-.349 1.075l.33 4.58a1.5 1.5 0 0 1-2.06 1.497l-4.254-1.73a1.5 1.5 0 0 0-1.13 0L7.181 21.8a1.5 1.5 0 0 1-2.06-1.497l.33-4.58a1.5 1.5 0 0 0-.35-1.075l-2.959-3.51a1.5 1.5 0 0 1 .788-2.424l4.457-1.1a1.5 1.5 0 0 0 .915-.665z"/></svg>
